X:1
T:Title
%%score ( 1 2 ) { 3 | 4 }
L:1/8
Q:1/4=108
M:6/8
K:Ab
V:1 treble nm="Grand Piano, Soprano"
V:2 treble 
V:3 treble nm="Choir Pad, Jesus Is Coming (Pepper)"
V:4 bass 
V:1
 E3 [EA]2 [EA] | [EA] [EA]2- [EA]3/2 z/ [EA] | [EA]2 [DG] [DG]2 [DF] | [DG]6 | [Ed]3 [Ec]2 [EB] | %5
w: By~Clarence~Board~Strouse * *|||||
 [EB] [DF]2- [DF]3/2 z/ [EB] | [EB]2 [E=A] [EB]2 [E_c] | [Ec]6 | [CE]3 [CE]2 [CE] | %9
w: ||||
 [CE] [CE]2- [CE]3/2 z/ [CA] | [EA]2 [EG] [EA]2 [EG] | [DF]6 | [_CA]3 G2 F | %13
w: ||||
 [CF]2 [CE] [CA]2 [CA] | [EA]2 [EA] [EG] [Ge]2 | [EA]6 | [Ac]3 [GB]2 [EA] | %17
w: ||||
 [EA] [EG]2- [EG]3/2 z/ z | [GB]2 [EA] [CE]2 [CF] | [DG]6 | [Ed]3 [Ec]2 [EB] | %21
w: ||||
 [DB] [DF]2- [DF]3/2 z/ z | [DG]2 [DF] [DG]2 [DF] | [DE]6 | [Ee]3 [Ec]2 [DB] | %25
w: ||||
 [CA] [EA]2- [EA]3/2 z/ z | [EA][EA][EA] [DB]2 [Ec] | [Fd]6 | [Ed]3 [Ec]2 [EB] | %29
w: ||||
 [Ee] [Ec]2- [Ec]3/2 z/ z | [DE]2 [DE] [DB]2 [CA] | [CA]6- | [CA]3 z3 |] %33
w: ||||
V:2
 x6 | x6 | x6 | x6 | x6 | x6 | x6 | x6 | x6 | x6 | x6 | x6 | z3 _C3 | x6 | x6 | x6 | x6 | x6 | x6 | %19
 x6 | x6 | x6 | x6 | x6 | x6 | x6 | x6 | x6 | x6 | x6 | x6 | x6 | x6 |] %33
V:3
 C3 C2 C | C C2- C3/2 z/ C | C2[K:bass] B, B,2 A, | B,6 | B,3 A,2 G, | G, A,2- A,3/2 z/ G, | %6
 G,2 G, G,2 G, | A,6 | A,3 A,2 A, | A, A,2- A,3/2 z/ A, | A,2 A, A,2 A, | A,6 | F,3 G,2 A, | %13
 A,2 A, A,2 A, | C2 C B, B,2 | C6 | E3 D2 C | C[K:bass] B,2- B,3/2 z/ z | D2 C A,2 A, | B,6 | %20
 B,3 A,2 G, | G, G,2- G,3/2 z/ z | B,2 A, B,2 A, | G,6 | A,3 A,2 A, | A, C2- C3/2 z/ z | %26
 A,A,A, F,2 =A, | B,6 | G,3 A,2 G, | A, A,2- A,3/2 z/ z | G,2 G, G,2 A, | A,6- | A,3 z3 |] %33
V:4
 A,3 A,2 A, | A, A,2- A,3/2 z/ A, | E,2 E, E,2 E, | E,6 | E,3 E,2 E, | E, E,2- E,3/2 z/ E, | %6
 E,2 E, E,2 E, | A,,6 | A,,3 A,,2 A,, | A,, A,,2- A,,3/2 z/ A,, | C,2 C, C,2 C, | D,6 | =D,3 D,3 | %13
 E,2 E, F,2 F, | E,2 E, E, E,2 | [A,,A,]6 | A,3 A,2 A, | E, E,2- E,3/2 z/ z | E,2 E, E,2 E, | E,6 | %20
 E,3 E,2 E, | E, E,2- E,3/2 z/ z | E,2 E, E,2 E, | E,6 | C,3 A,,2 A,, | A,, A,,2- A,,3/2 z/ z | %26
 C,C,C, D,2 C, | B,,6 | E,3 E,2 D, | C, A,,2- A,,3/2 z/ z | E,2 E, E,2 A,, | A,,6- | A,,3 z3 |] %33

